icons/svg/seamark_big/landmark_flagstaff.svg

<?xml version="1.0" encoding="UTF-8" standalone="no"?>
<svg
   xmlns:dc="http://purl.org/dc/elements/1.1/"
   xmlns:cc="http://creativecommons.org/ns#"
   xmlns:rdf="http://www.w3.org/1999/02/22-rdf-syntax-ns#"
   xmlns:svg="http://www.w3.org/2000/svg"
   xmlns="http://www.w3.org/2000/svg"
   xmlns:sodipodi="http://sodipodi.sourceforge.net/DTD/sodipodi-0.dtd"
   xmlns:inkscape="http://www.inkscape.org/namespaces/inkscape"
   width="1060"
   height="1060"
   id="svg2"
   version="1.1"
   inkscape:version="0.48.4 r9939"
   sodipodi:docname="landmark_flagstaff.svg">
  <defs
     id="defs13">
    <inkscape:path-effect
       effect="gears"
       id="path-effect3774"
       is_visible="true"
       teeth="6"
       phi="-1.2" />
    <inkscape:path-effect
       effect="bend_path"
       id="path-effect3772"
       is_visible="false"
       bendpath="m 95.790098,316.51174 c 144.429032,-206.42506 223.313032,-11.7428 339.548092,0"
       prop_scale="1.19"
       scale_y_rel="false"
       vertical="false"
       bendpath-nodetypes="cc" />
  </defs>
  <sodipodi:namedview
     pagecolor="#ffffff"
     bordercolor="#666666"
     borderopacity="1"
     objecttolerance="10"
     gridtolerance="10"
     guidetolerance="10"
     inkscape:pageopacity="0"
     inkscape:pageshadow="2"
     inkscape:window-width="1920"
     inkscape:window-height="1004"
     id="namedview11"
     showgrid="false"
     inkscape:zoom="0.57543862"
     inkscape:cx="737.06372"
     inkscape:cy="482.82701"
     inkscape:window-x="1680"
     inkscape:window-y="0"
     inkscape:window-maximized="1"
     inkscape:current-layer="svg2"
     inkscape:snap-object-midpoints="true"
     inkscape:snap-center="true" />
  <metadata
     id="metadata2975">image/svg+xmlen<rdf:RDF>
  <cc:Work
     rdf:about="">
    <dc:format>image/svg+xml</dc:format>
    <dc:type
       rdf:resource="http://purl.org/dc/dcmitype/StillImage" />
    <dc:title />
  </cc:Work>
</rdf:RDF>
</metadata>
  <path
     style="font-size:medium;font-style:normal;font-variant:normal;font-weight:normal;font-stretch:normal;text-indent:0;text-align:start;text-decoration:none;line-height:normal;letter-spacing:normal;word-spacing:normal;text-transform:none;direction:ltr;block-progression:tb;writing-mode:lr-tb;text-anchor:start;baseline-shift:baseline;opacity:0.372;color:#000000;fill:#e4e4e4;fill-opacity:1;fill-rule:nonzero;stroke:#a35151;stroke-width:0;stroke-linecap:round;stroke-linejoin:miter;stroke-miterlimit:4;stroke-opacity:1;stroke-dashoffset:0;marker:none;visibility:visible;display:inline;overflow:visible;enable-background:accumulate;font-family:Sans;-inkscape-font-specification:Sans"
     d="m 497.21875,226.84375 c -7.07638,0.001 -14.10866,2.91508 -19.11241,7.91884 -5.00376,5.00375 -7.91744,12.03603 -7.91884,19.11241 l 0,418.34375 c -9.9112,6.20118 -18.21538,14.64698 -24.28125,24.65625 l -42.6875,0 c -7.07638,10e-4 -14.10866,2.91508 -19.11241,7.91884 -5.00376,5.00375 -7.91744,12.03603 -7.91884,19.11241 l 0,23.0625 c 10e-4,7.07638 2.91508,14.10866 7.91884,19.11241 5.00375,5.00376 12.03603,7.91744 19.11241,7.91884 l 42.65625,0 c 13.15127,21.66132 36.90647,36.125 63.84375,36.125 26.93728,0 50.71353,-14.46141 63.875,-36.125 l 42.625,0 c 7.07638,-10e-4 14.10866,-2.91508 19.11241,-7.91884 5.00376,-5.00375 7.91744,-12.03603 7.91884,-19.11241 l 0,-23.0625 c -10e-4,-7.07638 -2.91508,-14.10866 -7.91884,-19.11241 -5.00375,-5.00376 -12.03603,-7.91744 -19.11241,-7.91884 l -42.625,0 c -6.43996,-10.6375 -15.42836,-19.48918 -26.15625,-25.78125 l 0,-237.28125 102.6875,0 10.34375,0 c 7.07638,-10e-4 14.10866,-2.91508 19.11241,-7.91884 5.00376,-5.00375 7.91744,-12.03603 7.91884,-19.11241 l 0,-10.34375 0,-104.46875 0,-10.34375 c -10e-4,-7.07638 -2.91508,-14.10866 -7.91884,-19.11241 -5.00375,-5.00376 -12.03603,-7.91744 -19.11241,-7.91884 l -10.34375,0 -102.6875,0 0,-0.71875 c -10e-4,-7.07638 -2.91508,-14.10866 -7.91884,-19.11241 -5.00375,-5.00376 -12.03603,-7.91744 -19.11241,-7.91884 z"
     id="path3958"
     inkscape:connector-curvature="0"
     sodipodi:nodetypes="csccccsccsccsccsccsccccccsccccsccccscc" />
  <path
     sodipodi:type="arc"
     style="color:#000000;fill:none;stroke:#000000;stroke-width:30.33652288;stroke-linecap:butt;stroke-linejoin:miter;stroke-miterlimit:4;stroke-opacity:1;stroke-dasharray:none;stroke-dashoffset:0;marker:none;visibility:visible;display:inline;overflow:visible;enable-background:accumulate"
     id="path2985"
     sodipodi:cx="510.26483"
     sodipodi:cy="737.74365"
     sodipodi:rx="69.120766"
     sodipodi:ry="69.120766"
     d="m 579.3856,737.74365 a 69.120766,69.120766 0 1 1 -138.24153,0 69.120766,69.120766 0 1 1 138.24153,0 z"
     transform="matrix(0.56558888,0,0,0.56558888,221.05031,318.17685)" />
  <path
     style="font-size:medium;font-style:normal;font-variant:normal;font-weight:normal;font-stretch:normal;text-indent:0;text-align:start;text-decoration:none;line-height:normal;letter-spacing:normal;word-spacing:normal;text-transform:none;direction:ltr;block-progression:tb;writing-mode:lr-tb;text-anchor:start;baseline-shift:baseline;color:#000000;fill:#000000;fill-opacity:1;stroke:none;stroke-width:30.00000191;marker:none;visibility:visible;display:inline;overflow:visible;enable-background:accumulate;font-family:Sans;-inkscape-font-specification:Sans"
     d="m 403.14276,723.91311 0,23.04878 67.30005,0 0,-23.04878 z m 145.69568,0 0,23.04878 67.30005,0 0,-23.04878 z"
     id="path3754"
     inkscape:connector-curvature="0"
     sodipodi:nodetypes="cccccccccc" />
  <rect
     style="fill:none"
     y="209.23727"
     x="249.02544"
     width="487.45749"
     height="487.45749"
     id="rect3" />
  <rect
     style="fill:none"
     y="209.23727"
     x="249.02544"
     width="487.45749"
     height="487.45749"
     id="rect3-8" />
  <path
     style="fill:none;stroke:#000000;stroke-width:23.20000076;stroke-linecap:butt;stroke-linejoin:miter;stroke-miterlimit:4;stroke-opacity:1;stroke-dasharray:none"
     d="m 508.72882,696.27118 0,-442.37288"
     id="path3860"
     inkscape:connector-curvature="0"
     sodipodi:nodetypes="cc" />
  <path
     style="fill:none;stroke:#000000;stroke-width:20.7;stroke-linecap:butt;stroke-linejoin:miter;stroke-opacity:1;stroke-miterlimit:4;stroke-dasharray:none"
     d="m 507.5,291.99152 142.54238,0 0,104.44915 -142.54238,0"
     id="path3862"
     inkscape:connector-curvature="0" />
  <rect
     style="fill:none"
     y="286.47861"
     x="-412.29581"
     width="487.45749"
     height="487.45749"
     id="rect3-5" />
  <rect
     style="fill:none"
     y="286.47861"
     x="-412.29581"
     width="487.45749"
     height="487.45749"
     id="rect3-8-8" />
</svg>

<svg width="1060" height="1060" viewBox="0 0 1060 1060" fill="none" xmlns="http://www.w3.org/2000/svg">
<g clip-path="url(#clip0)">
<path opacity="0.372" d="M497.219 226.844C490.142 226.845 483.11 229.759 478.106 234.763C473.103 239.766 470.189 246.799 470.188 253.875V672.219C460.276 678.42 451.972 686.866 445.906 696.875H403.219C396.142 696.876 389.11 699.79 384.106 704.794C379.103 709.798 376.189 716.83 376.188 723.906V746.969C376.189 754.045 379.103 761.077 384.106 766.081C389.11 771.085 396.142 773.999 403.219 774H445.875C459.026 795.661 482.781 810.125 509.719 810.125C536.656 810.125 560.432 795.664 573.594 774H616.219C623.295 773.999 630.327 771.085 635.331 766.081C640.335 761.077 643.249 754.045 643.25 746.969V723.906C643.249 716.83 640.335 709.798 635.331 704.794C630.327 699.79 623.295 696.876 616.219 696.875H573.594C567.154 686.238 558.165 677.386 547.438 671.094V433.812H650.125H660.469C667.545 433.811 674.577 430.897 679.581 425.894C684.585 420.89 687.499 413.858 687.5 406.781V396.438V291.969V281.625C687.499 274.549 684.585 267.516 679.581 262.513C674.577 257.509 667.545 254.595 660.469 254.594H650.125H547.438V253.875C547.436 246.799 544.522 239.766 539.519 234.763C534.515 229.759 527.483 226.845 520.406 226.844H497.219Z" fill="#E4E4E4"/>
<path d="M548.744 735.437C548.745 740.571 547.735 745.655 545.77 750.399C543.806 755.143 540.927 759.453 537.296 763.084C533.666 766.715 529.356 769.596 524.612 771.561C519.869 773.526 514.785 774.537 509.65 774.537C504.516 774.537 499.432 773.526 494.688 771.561C489.945 769.596 485.635 766.715 482.004 763.084C478.374 759.453 475.495 755.143 473.53 750.399C471.566 745.655 470.556 740.571 470.556 735.437C470.556 730.302 471.566 725.218 473.53 720.474C475.495 715.73 478.374 711.42 482.004 707.789C485.635 704.158 489.945 701.277 494.688 699.312C499.432 697.347 504.516 696.336 509.65 696.336C514.785 696.336 519.869 697.347 524.612 699.312C529.356 701.277 533.666 704.158 537.296 707.789C540.927 711.42 543.806 715.73 545.77 720.474C547.735 725.218 548.745 730.302 548.744 735.437Z" stroke="black" stroke-width="17.158"/>
<path d="M403.143 723.913V746.962H470.443V723.913H403.143ZM548.839 723.913V746.962H616.139V723.913H548.839Z" fill="black"/>
<path d="M508.729 696.271V253.898" stroke="black" stroke-width="23.2"/>
<path d="M507.5 291.991H650.042V396.441H507.5" stroke="black" stroke-width="20.7"/>
</g>
<defs>
<clipPath id="clip0">
<path d="M0 0H1060V1060H0V0Z" fill="white"/>
</clipPath>
</defs>
</svg>
